svg/furkot/icomoon/expand.svg

<svg viewBox="0 0 512 512" xmlns="http://www.w3.org/2000/svg"><path d="m512 0h-208l80 80-96 96 48 48 96-96 80 80zm0 512v-208l-80 80-96-96-48 48 96 96-80 80zm-512 0h208l-80-80 96-96-48-48-96 96-80-80zm0-512v208l80-80 96 96 48-48-96-96 80-80z"/></svg>

<svg xmlns="http://www.w3.org/2000/svg" viewBox="0 0 512 512"><path d="M512 0H304L384 80 288 176 336 224 432 128 512 208ZM512 512V304L432 384 336 288 288 336 384 432 304 512ZM0 512H208L128 432 224 336 176 288 80 384 0 304ZM0 0V208L80 128 176 224 224 176 128 80 208 0Z"/></svg>
